X: 7
T:Hurlocks Reel
M:4/4
L:1/8
K:A
A-B|"A"cBcA E2 A-B|"A"cBce "D"f2 e-f|"D"agaf "A"efAB|"A"c2 B2 "E"B2 A-B|
!
"A"cBcA E2 A-B|"A"cBce "D"f2 e-f|"F#m"agaf "E7"efAB|"A"c2 A2 A2 :||!
c-e|"A"fece aece|"A"fecA E2 A-B|"A"cBcA "E7"EFAB|1"A"c2 B2 "E7"B2 c-e|!
"A"fece aece|"A"fecA E2 A-B|"A"cBcA "E7"EFAB|"A"c2 A2 A2:||!
|2"A"c2 B2 B2 A-B|"A"cBcA E2 A-B|"A"cBce "D"f2 e-f|"F#m"agaf "E7"efAB|"A
"c2 A2 A2||
% <A name="D1X008"></A>

